icons/java.svg

<svg viewBox="0 0 32 32" fill="none" xmlns="http://www.w3.org/2000/svg">
<g id="Java">
<path id="Vector" d="M22.0025 18.236C21.98 19 22.0212 20.0151 21.7215 20.8764C21.4593 21.7378 21.0099 22.5056 20.3732 23.1797C19.7366 23.8165 19.0062 24.3034 18.1823 24.6404C17.3583 24.94 16.73 25 15.598 25C14.466 25 13.4631 24.8839 12.4519 24.4718C11.4781 24.0224 10.6542 23.3857 9.98 22.5618L12.0025 19.9776C12.4145 20.5018 12.9201 20.9139 13.5193 21.2136C14.1186 21.5131 14.774 21.663 15.4856 21.663C16.4219 21.663 17.1523 21.3632 17.6766 20.764C18.201 20.1274 18.4631 19.191 18.4631 17.9551V7H22.0025V18.236Z" fill="#CC3E44"/>
</g>
</svg>

<svg viewBox="0 0 32 32" fill="none" xmlns="http://www.w3.org/2000/svg"><path d="M22.003 18.236c-.023.764.018 1.78-.282 2.64a5.76 5.76 0 01-1.348 2.304 6.607 6.607 0 01-2.19 1.46c-.825.3-1.453.36-2.585.36s-2.135-.116-3.146-.528a6.873 6.873 0 01-2.472-1.91l2.022-2.584a4.42 4.42 0 001.517 1.236c.6.3 1.255.449 1.967.449.936 0 1.666-.3 2.19-.899.525-.637.787-1.573.787-2.809V7h3.54v11.236z" fill="#CC3E44"/></svg>
